svg/chevereto.svg

<svg xmlns="http://www.w3.org/2000/svg" width="400" height="400"><g fill-rule="evenodd"><path fill="#fbfbfb" d="M248.208 90.429c-11.304 3.344-21.866 9.607-31.773 18.841l-3.292 3.068 1.06 3.694c4.04 14.082 3.314 29.068-3.87 79.866-1.996 14.12-2.485 15.962-5.51 20.782-24.925 39.719-67.777 68.37-92.518 61.859-24.545-6.459-31.256-35.328-16.554-71.21 10.265-25.055 29.35-39.366 40.159-30.113 6.309 5.399 3.466 21.127-7.168 39.661l-1.055 1.839 1.636 1.775c5.411 5.87 16.513 6.093 26.912.54 28.011-14.958 20.044-59.098-12.364-68.501-33.311-9.666-69.999 11.139-89.913 50.986-13.121 26.254-15.257 59.538-5.116 79.717 17.893 35.604 72.729 36.283 118.412 1.466 4.683-3.569 8.02-6.446 22.004-18.969 9.19-8.231 8.337-8.656 7.446 3.708-1.725 23.963 1.773 34.292 12.865 37.983 8.587 2.858 22.388.434 27.487-4.827l1.261-1.301 3.657-20.47c6.457-36.144 7.432-40.923 12.523-61.392 3.807-15.302 3.652-14.972 8.463-18.016 18.563-11.743 36.767-9.365 38.457 5.024.607 5.171-1.28 17.962-4.553 30.866-1.254 4.941-3.681 14.521-5.395 21.289-5.254 20.749-5.171 28.665.408 39.159 7.1 13.354 27.771 14.775 47.346 3.254 7.502-4.415 10.804-8.962 14.488-19.952 4.444-13.256 5.004-23.879 1.117-21.195-4.626 3.194-11.642 4.498-15.035 2.794-3.048-1.531-3.83-4.258-2.901-10.115 1.332-8.401 2.268-11.304 11.639-36.133 9.915-26.272 10.914-34.954 5.379-46.766-5.533-11.807-14.275-17.236-28.91-17.955-24.552-1.207-49.056 7.665-58.451 21.161-1.254 1.8-2.318 3.234-2.366 3.185-.049-.048 1.488-5.705 3.415-12.571 11.836-42.184 13.425-52.733 9.264-61.507-4.405-9.289-17.884-14.71-28.654-11.524"/><path fill="#24ace4" d="M0 200v200h400V0H0v200M260.574 90.239c12.041 2.569 19.604 12.179 18.559 23.581-.778 8.478-4.595 24.905-11.535 49.64-1.927 6.866-3.464 12.523-3.415 12.571.048.049 1.112-1.385 2.366-3.185 9.395-13.496 33.899-22.368 58.451-21.161 14.635.719 23.377 6.148 28.91 17.955 5.535 11.812 4.536 20.494-5.379 46.766-9.371 24.829-10.307 27.732-11.639 36.133-.929 5.857-.147 8.584 2.901 10.115 3.393 1.704 10.409.4 15.035-2.794 6.141-4.241.46 22.993-7.083 33.957-5.907 8.585-25.38 16.204-37.815 14.795-12.247-1.387-18.733-7.576-21.482-20.498-1.697-7.978-1.198-12.858 3.021-29.52 1.714-6.768 4.141-16.348 5.395-21.289 3.273-12.904 5.16-25.695 4.553-30.866-1.69-14.389-19.894-16.767-38.457-5.024-4.811 3.044-4.656 2.714-8.463 18.016-5.091 20.469-6.066 25.248-12.523 61.392l-3.657 20.47-1.261 1.301c-5.099 5.261-18.9 7.685-27.487 4.827-11.092-3.691-14.59-14.02-12.865-37.983.891-12.364 1.744-11.939-7.446-3.708-13.984 12.523-17.321 15.4-22.004 18.969-45.683 34.817-100.519 34.138-118.412-1.466-10.141-20.179-8.005-53.463 5.116-79.717 19.914-39.847 56.602-60.652 89.913-50.986 32.408 9.403 40.375 53.543 12.364 68.501-10.399 5.553-21.501 5.33-26.912-.54l-1.636-1.775 1.055-1.839c6.172-10.757 10.716-23.939 10.707-31.064-.009-8.118-5.959-12.533-14.527-10.78-24.876 5.089-45.955 61.435-32.729 87.486 16.9 33.288 70.017 14.284 107.717-38.539 7.873-11.032 8.098-11.637 10.423-28.082 7.184-50.798 7.91-65.784 3.87-79.866l-1.06-3.694 3.292-3.068c15.508-14.454 32.088-21.602 44.139-19.031"/></g></svg>

<?xml version="1.0" encoding="UTF-8" standalone="no"?>
<svg
   xmlns:dc="http://purl.org/dc/elements/1.1/"
   xmlns:cc="http://creativecommons.org/ns#"
   xmlns:rdf="http://www.w3.org/1999/02/22-rdf-syntax-ns#"
   xmlns:svg="http://www.w3.org/2000/svg"
   xmlns="http://www.w3.org/2000/svg"
   xmlns:sodipodi="http://sodipodi.sourceforge.net/DTD/sodipodi-0.dtd"
   xmlns:inkscape="http://www.inkscape.org/namespaces/inkscape"
   id="svg"
   version="1.1"
   width="400"
   height="400"
   viewBox="0, 0, 400,400"
   sodipodi:docname="logo.svg">
  <metadata
     id="metadata10">
    <rdf:RDF>
      <cc:Work
         rdf:about="">
        <dc:format>image/svg+xml</dc:format>
        <dc:type
           rdf:resource="http://purl.org/dc/dcmitype/StillImage" />
      </cc:Work>
    </rdf:RDF>
  </metadata>
  <defs
     id="defs8" />
  <sodipodi:namedview
     pagecolor="#ffffff"
     bordercolor="#666666"
     borderopacity="1"
     objecttolerance="10"
     gridtolerance="10"
     guidetolerance="10"
     inkscape:pageopacity="0"
     inkscape:pageshadow="2"
     inkscape:window-width="640"
     inkscape:window-height="480"
     id="namedview6" />
  <g
     id="svgg">
    <path
       id="path0"
       d="M248.208 90.429 C 236.904 93.773,226.342 100.036,216.435 109.270 L 213.143 112.338 214.203 116.032 C 218.243 130.114,217.517 145.100,210.333 195.898 C 208.337 210.018,207.848 211.860,204.823 216.680 C 179.898 256.399,137.046 285.050,112.305 278.539 C 87.760 272.080,81.049 243.211,95.751 207.329 C 106.016 182.274,125.101 167.963,135.910 177.216 C 142.219 182.615,139.376 198.343,128.742 216.877 L 127.687 218.716 129.323 220.491 C 134.734 226.361,145.836 226.584,156.235 221.031 C 184.246 206.073,176.279 161.933,143.871 152.530 C 110.560 142.864,73.872 163.669,53.958 203.516 C 40.837 229.770,38.701 263.054,48.842 283.233 C 66.735 318.837,121.571 319.516,167.254 284.699 C 171.937 281.130,175.274 278.253,189.258 265.730 C 198.448 257.499,197.595 257.074,196.704 269.438 C 194.979 293.401,198.477 303.730,209.569 307.421 C 218.156 310.279,231.957 307.855,237.056 302.594 L 238.317 301.293 241.974 280.823 C 248.431 244.679,249.406 239.900,254.497 219.431 C 258.304 204.129,258.149 204.459,262.960 201.415 C 281.523 189.672,299.727 192.050,301.417 206.439 C 302.024 211.610,300.137 224.401,296.864 237.305 C 295.610 242.246,293.183 251.826,291.469 258.594 C 286.215 279.343,286.298 287.259,291.877 297.753 C 298.977 311.107,319.648 312.528,339.223 301.007 C 346.725 296.592,350.027 292.045,353.711 281.055 C 358.155 267.799,358.715 257.176,354.828 259.860 C 350.202 263.054,343.186 264.358,339.793 262.654 C 336.745 261.123,335.963 258.396,336.892 252.539 C 338.224 244.138,339.160 241.235,348.531 216.406 C 358.446 190.134,359.445 181.452,353.910 169.640 C 348.377 157.833,339.635 152.404,325.000 151.685 C 300.448 150.478,275.944 159.350,266.549 172.846 C 265.295 174.646,264.231 176.080,264.183 176.031 C 264.134 175.983,265.671 170.326,267.598 163.460 C 279.434 121.276,281.023 110.727,276.862 101.953 C 272.457 92.664,258.978 87.243,248.208 90.429 "
       stroke="none"
       fill="#fbfbfb"
       fill-rule="evenodd" />
    <path
       id="path1"
       d="M0.000 200.000 L 0.000 400.000 200.000 400.000 L 400.000 400.000 400.000 200.000 L 400.000 0.000 200.000 0.000 L 0.000 0.000 0.000 200.000 M260.574 90.239 C 272.615 92.808,280.178 102.418,279.133 113.820 C 278.355 122.298,274.538 138.725,267.598 163.460 C 265.671 170.326,264.134 175.983,264.183 176.031 C 264.231 176.080,265.295 174.646,266.549 172.846 C 275.944 159.350,300.448 150.478,325.000 151.685 C 339.635 152.404,348.377 157.833,353.910 169.640 C 359.445 181.452,358.446 190.134,348.531 216.406 C 339.160 241.235,338.224 244.138,336.892 252.539 C 335.963 258.396,336.745 261.123,339.793 262.654 C 343.186 264.358,350.202 263.054,354.828 259.860 C 360.969 255.619,355.288 282.853,347.745 293.817 C 341.838 302.402,322.365 310.021,309.930 308.612 C 297.683 307.225,291.197 301.036,288.448 288.114 C 286.751 280.136,287.250 275.256,291.469 258.594 C 293.183 251.826,295.610 242.246,296.864 237.305 C 300.137 224.401,302.024 211.610,301.417 206.439 C 299.727 192.050,281.523 189.672,262.960 201.415 C 258.149 204.459,258.304 204.129,254.497 219.431 C 249.406 239.900,248.431 244.679,241.974 280.823 L 238.317 301.293 237.056 302.594 C 231.957 307.855,218.156 310.279,209.569 307.421 C 198.477 303.730,194.979 293.401,196.704 269.438 C 197.595 257.074,198.448 257.499,189.258 265.730 C 175.274 278.253,171.937 281.130,167.254 284.699 C 121.571 319.516,66.735 318.837,48.842 283.233 C 38.701 263.054,40.837 229.770,53.958 203.516 C 73.872 163.669,110.560 142.864,143.871 152.530 C 176.279 161.933,184.246 206.073,156.235 221.031 C 145.836 226.584,134.734 226.361,129.323 220.491 L 127.687 218.716 128.742 216.877 C 134.914 206.120,139.458 192.938,139.449 185.813 C 139.440 177.695,133.490 173.280,124.922 175.033 C 100.046 180.122,78.967 236.468,92.193 262.519 C 109.093 295.807,162.210 276.803,199.910 223.980 C 207.783 212.948,208.008 212.343,210.333 195.898 C 217.517 145.100,218.243 130.114,214.203 116.032 L 213.143 112.338 216.435 109.270 C 231.943 94.816,248.523 87.668,260.574 90.239 "
       stroke="none"
       fill="#24ace4"
       fill-rule="evenodd" />
  </g>
</svg>
